images/登录_1/wifi_u5593.svg

﻿<?xml version="1.0" encoding="utf-8"?>
<svg version="1.1" xmlns:xlink="http://www.w3.org/1999/xlink" width="16px" height="11px" xmlns="http://www.w3.org/2000/svg">
  <defs>
    <mask fill="white" id="clip46">
      <path d="M 8.2525550499812 10.870255328178  C 8.19623377574925 10.9280657184176  8.11945345050742 10.9614328691068  8.03876190588466 10.9631654328555  C 7.95575149943556 10.9627290946355  7.87632115994944 10.9293036576572  7.81797552810269 10.870255328178  L 5.81990876084501 8.85620402678235  C 5.76004986698558 8.79740893590901  5.72633060606341 8.71702452907272  5.72633060606341 8.6331201198627  C 5.72633060606341 8.54444902043172  5.76397645309106 8.45994715793289  5.82989909468131 8.40064480384761  C 7.10407988291348 7.32271651922798  8.97044682870489 7.32271651922798  10.2446276169371 8.40064480384761  C 10.3076856648139 8.45887522668653  10.3438458623382 8.54059727309151  10.3445309552999 8.62642634854772  C 10.3460337087608 8.71265074707321  10.3120861220325 8.79571399119564  10.2506218172388 8.85620402678235  L 8.2525550499812 10.870255328178  Z M 11.7621593266692 7.33767328366654  C 11.7042246450682 7.39587129371879  11.6254894405077 7.4285877485818  11.5433710156545 7.42858532157676  C 11.4638860865686 7.42857401248412  11.3874082524366 7.39819730266531  11.3295778715579 7.34366748396831  C 9.46349250893508 5.65060270885833  6.61702840298506 5.65060270885833  4.75094304036219 7.34366748396831  C 4.69311265948363 7.39819730266531  4.61663482535153 7.42857401248411  4.53714989626565 7.42858532157676  C 4.45466334846435 7.42896610603449  4.37547781450473 7.39621208971483  4.31736255186729 7.33767328366654  L 3.16447802715965 6.17180132497171  C 3.1030347347629 6.11133195915295  3.06843319226823 6.02873118151927  3.06843319226823 5.94252316342889  C 3.06843319226823 5.85631514533852  3.1030347347629 5.77371436770484  3.16447802715965 5.71324500188608  C 5.90971789157567 3.15889049910914  10.1618117198918 3.15889049910913  12.9070515843079 5.71324500188608  C 12.9697912733275 5.77294723456669  13.0058078059511 5.85542509427481  13.0069549226708 5.94202364673708  C 13.0072119616453 6.02800991172142  12.9734541729616 6.11060875637298  12.9130457846097 6.17180132497171  L 11.7621593266692 7.33767328366654  Z M 14.4185890937383 4.65526864862316  C 14.359811413151 4.71465408134945  14.2793494600425 4.74748833127265  14.1958046491891 4.74618068653338  C 14.1157954409787 4.74690800068397  14.0388170842651 4.71561306127234  13.9820115050925 4.65926478215767  C 10.6497700723212 1.49089644650901  5.41876243899543 1.49089644650901  2.08652100622413 4.65926478215768  C 2.02971542705154 4.71561306127234  1.95273707033789 4.74690800068397  1.87272786212759 4.74618068653338  C 1.79024131432629 4.74656147099111  1.71105578036668 4.71380745467145  1.65294051772923 4.65526864862316  L 0.503053093172468 3.49039572331196  C 0.442534077501023 3.43004224837833  0.408520897969311 3.34808594976653  0.408520897969311 3.26261611184459  C 0.408520897969311 3.17714627392264  0.442534077501023 3.09518997531084  0.503053093172468 3.03483650037722  C 4.71462584074425 -0.999439025640367  11.3569037707232 -0.999439025640367  15.568476518295 3.03483650037722  C 15.6306920801701 3.09449233618617  15.6666334710887 3.17643870748045  15.6683798566579 3.26261611184459  C 15.6691475954694 3.34840743791676  15.6352923224765 3.43088464552718  15.5744707185968 3.49139475669559  L 14.4185890937383 4.65526864862316  Z " fill-rule="evenodd" />
    </mask>
  </defs>
  <g transform="matrix(1 0 0 1 -316 -16 )">
    <path d="M 8.2525550499812 10.870255328178  C 8.19623377574925 10.9280657184176  8.11945345050742 10.9614328691068  8.03876190588466 10.9631654328555  C 7.95575149943556 10.9627290946355  7.87632115994944 10.9293036576572  7.81797552810269 10.870255328178  L 5.81990876084501 8.85620402678235  C 5.76004986698558 8.79740893590901  5.72633060606341 8.71702452907272  5.72633060606341 8.6331201198627  C 5.72633060606341 8.54444902043172  5.76397645309106 8.45994715793289  5.82989909468131 8.40064480384761  C 7.10407988291348 7.32271651922798  8.97044682870489 7.32271651922798  10.2446276169371 8.40064480384761  C 10.3076856648139 8.45887522668653  10.3438458623382 8.54059727309151  10.3445309552999 8.62642634854772  C 10.3460337087608 8.71265074707321  10.3120861220325 8.79571399119564  10.2506218172388 8.85620402678235  L 8.2525550499812 10.870255328178  Z M 11.7621593266692 7.33767328366654  C 11.7042246450682 7.39587129371879  11.6254894405077 7.4285877485818  11.5433710156545 7.42858532157676  C 11.4638860865686 7.42857401248412  11.3874082524366 7.39819730266531  11.3295778715579 7.34366748396831  C 9.46349250893508 5.65060270885833  6.61702840298506 5.65060270885833  4.75094304036219 7.34366748396831  C 4.69311265948363 7.39819730266531  4.61663482535153 7.42857401248411  4.53714989626565 7.42858532157676  C 4.45466334846435 7.42896610603449  4.37547781450473 7.39621208971483  4.31736255186729 7.33767328366654  L 3.16447802715965 6.17180132497171  C 3.1030347347629 6.11133195915295  3.06843319226823 6.02873118151927  3.06843319226823 5.94252316342889  C 3.06843319226823 5.85631514533852  3.1030347347629 5.77371436770484  3.16447802715965 5.71324500188608  C 5.90971789157567 3.15889049910914  10.1618117198918 3.15889049910913  12.9070515843079 5.71324500188608  C 12.9697912733275 5.77294723456669  13.0058078059511 5.85542509427481  13.0069549226708 5.94202364673708  C 13.0072119616453 6.02800991172142  12.9734541729616 6.11060875637298  12.9130457846097 6.17180132497171  L 11.7621593266692 7.33767328366654  Z M 14.4185890937383 4.65526864862316  C 14.359811413151 4.71465408134945  14.2793494600425 4.74748833127265  14.1958046491891 4.74618068653338  C 14.1157954409787 4.74690800068397  14.0388170842651 4.71561306127234  13.9820115050925 4.65926478215767  C 10.6497700723212 1.49089644650901  5.41876243899543 1.49089644650901  2.08652100622413 4.65926478215768  C 2.02971542705154 4.71561306127234  1.95273707033789 4.74690800068397  1.87272786212759 4.74618068653338  C 1.79024131432629 4.74656147099111  1.71105578036668 4.71380745467145  1.65294051772923 4.65526864862316  L 0.503053093172468 3.49039572331196  C 0.442534077501023 3.43004224837833  0.408520897969311 3.34808594976653  0.408520897969311 3.26261611184459  C 0.408520897969311 3.17714627392264  0.442534077501023 3.09518997531084  0.503053093172468 3.03483650037722  C 4.71462584074425 -0.999439025640367  11.3569037707232 -0.999439025640367  15.568476518295 3.03483650037722  C 15.6306920801701 3.09449233618617  15.6666334710887 3.17643870748045  15.6683798566579 3.26261611184459  C 15.6691475954694 3.34840743791676  15.6352923224765 3.43088464552718  15.5744707185968 3.49139475669559  L 14.4185890937383 4.65526864862316  Z " fill-rule="nonzero" fill="#000000" stroke="none" transform="matrix(1 0 0 1 316 16 )" />
    <path d="M 8.2525550499812 10.870255328178  C 8.19623377574925 10.9280657184176  8.11945345050742 10.9614328691068  8.03876190588466 10.9631654328555  C 7.95575149943556 10.9627290946355  7.87632115994944 10.9293036576572  7.81797552810269 10.870255328178  L 5.81990876084501 8.85620402678235  C 5.76004986698558 8.79740893590901  5.72633060606341 8.71702452907272  5.72633060606341 8.6331201198627  C 5.72633060606341 8.54444902043172  5.76397645309106 8.45994715793289  5.82989909468131 8.40064480384761  C 7.10407988291348 7.32271651922798  8.97044682870489 7.32271651922798  10.2446276169371 8.40064480384761  C 10.3076856648139 8.45887522668653  10.3438458623382 8.54059727309151  10.3445309552999 8.62642634854772  C 10.3460337087608 8.71265074707321  10.3120861220325 8.79571399119564  10.2506218172388 8.85620402678235  L 8.2525550499812 10.870255328178  Z " stroke-width="2" stroke="#797979" fill="none" transform="matrix(1 0 0 1 316 16 )" mask="url(#clip46)" />
    <path d="M 11.7621593266692 7.33767328366654  C 11.7042246450682 7.39587129371879  11.6254894405077 7.4285877485818  11.5433710156545 7.42858532157676  C 11.4638860865686 7.42857401248412  11.3874082524366 7.39819730266531  11.3295778715579 7.34366748396831  C 9.46349250893508 5.65060270885833  6.61702840298506 5.65060270885833  4.75094304036219 7.34366748396831  C 4.69311265948363 7.39819730266531  4.61663482535153 7.42857401248411  4.53714989626565 7.42858532157676  C 4.45466334846435 7.42896610603449  4.37547781450473 7.39621208971483  4.31736255186729 7.33767328366654  L 3.16447802715965 6.17180132497171  C 3.1030347347629 6.11133195915295  3.06843319226823 6.02873118151927  3.06843319226823 5.94252316342889  C 3.06843319226823 5.85631514533852  3.1030347347629 5.77371436770484  3.16447802715965 5.71324500188608  C 5.90971789157567 3.15889049910914  10.1618117198918 3.15889049910913  12.9070515843079 5.71324500188608  C 12.9697912733275 5.77294723456669  13.0058078059511 5.85542509427481  13.0069549226708 5.94202364673708  C 13.0072119616453 6.02800991172142  12.9734541729616 6.11060875637298  12.9130457846097 6.17180132497171  L 11.7621593266692 7.33767328366654  Z " stroke-width="2" stroke="#797979" fill="none" transform="matrix(1 0 0 1 316 16 )" mask="url(#clip46)" />
    <path d="M 14.4185890937383 4.65526864862316  C 14.359811413151 4.71465408134945  14.2793494600425 4.74748833127265  14.1958046491891 4.74618068653338  C 14.1157954409787 4.74690800068397  14.0388170842651 4.71561306127234  13.9820115050925 4.65926478215767  C 10.6497700723212 1.49089644650901  5.41876243899543 1.49089644650901  2.08652100622413 4.65926478215768  C 2.02971542705154 4.71561306127234  1.95273707033789 4.74690800068397  1.87272786212759 4.74618068653338  C 1.79024131432629 4.74656147099111  1.71105578036668 4.71380745467145  1.65294051772923 4.65526864862316  L 0.503053093172468 3.49039572331196  C 0.442534077501023 3.43004224837833  0.408520897969311 3.34808594976653  0.408520897969311 3.26261611184459  C 0.408520897969311 3.17714627392264  0.442534077501023 3.09518997531084  0.503053093172468 3.03483650037722  C 4.71462584074425 -0.999439025640367  11.3569037707232 -0.999439025640367  15.568476518295 3.03483650037722  C 15.6306920801701 3.09449233618617  15.6666334710887 3.17643870748045  15.6683798566579 3.26261611184459  C 15.6691475954694 3.34840743791676  15.6352923224765 3.43088464552718  15.5744707185968 3.49139475669559  L 14.4185890937383 4.65526864862316  Z " stroke-width="2" stroke="#797979" fill="none" transform="matrix(1 0 0 1 316 16 )" mask="url(#clip46)" />
  </g>
</svg>

<svg xmlns="http://www.w3.org/2000/svg" width="16" height="11"><defs><mask id="a" fill="#fff"><path fill-rule="evenodd" d="M8.253 10.87a.3.3 0 0 1-.214.093.31.31 0 0 1-.221-.093L5.82 8.856a.313.313 0 0 1 .01-.455 3.42 3.42 0 0 1 4.415 0 .315.315 0 0 1 .006.456zm3.51-3.532a.31.31 0 0 1-.433.006 4.895 4.895 0 0 0-6.58 0 .31.31 0 0 1-.433-.006L3.164 6.172a.32.32 0 0 1 0-.459 7.15 7.15 0 0 1 9.743 0 .32.32 0 0 1 .006.459zm2.656-2.683a.3.3 0 0 1-.223.091.3.3 0 0 1-.214-.087 8.63 8.63 0 0 0-11.895 0 .308.308 0 0 1-.434-.004L.503 3.49a.32.32 0 0 1 0-.455 10.89 10.89 0 0 1 15.065 0 .319.319 0 0 1 .006.457z"/></mask></defs><path d="M8.253 10.87a.3.3 0 0 1-.214.093.31.31 0 0 1-.221-.093L5.82 8.856a.313.313 0 0 1 .01-.455 3.42 3.42 0 0 1 4.415 0 .315.315 0 0 1 .006.456zm3.51-3.532a.31.31 0 0 1-.433.006 4.895 4.895 0 0 0-6.58 0 .31.31 0 0 1-.433-.006L3.164 6.172a.32.32 0 0 1 0-.459 7.15 7.15 0 0 1 9.743 0 .32.32 0 0 1 .006.459zm2.656-2.683a.3.3 0 0 1-.223.091.3.3 0 0 1-.214-.087 8.63 8.63 0 0 0-11.895 0 .308.308 0 0 1-.434-.004L.503 3.49a.32.32 0 0 1 0-.455 10.89 10.89 0 0 1 15.065 0 .319.319 0 0 1 .006.457z"/><path fill="none" stroke="#797979" stroke-width="2" d="M8.253 10.87a.3.3 0 0 1-.214.093.31.31 0 0 1-.221-.093L5.82 8.856a.313.313 0 0 1 .01-.455 3.42 3.42 0 0 1 4.415 0 .315.315 0 0 1 .006.456z" mask="url(#a)"/><path fill="none" stroke="#797979" stroke-width="2" d="M11.762 7.338a.31.31 0 0 1-.432.006 4.895 4.895 0 0 0-6.58 0 .31.31 0 0 1-.433-.006L3.164 6.172a.32.32 0 0 1 0-.459 7.15 7.15 0 0 1 9.743 0 .32.32 0 0 1 .006.459z" mask="url(#a)"/><path fill="none" stroke="#797979" stroke-width="2" d="M14.419 4.655a.3.3 0 0 1-.223.091.3.3 0 0 1-.214-.087 8.63 8.63 0 0 0-11.895 0 .308.308 0 0 1-.434-.004L.503 3.49a.32.32 0 0 1 0-.455 10.89 10.89 0 0 1 15.065 0 .319.319 0 0 1 .006.457z" mask="url(#a)"/></svg>
